yogo/img/logo-icon.svg

<svg width="40" height="40" viewBox="0 0 40 40" fill="none" xmlns="http://www.w3.org/2000/svg">
<path d="M9.67726 26.8946C5.9172 27.3293 5.91057 27.3326 4.73576 23.8248C4.01892 21.6875 3.32532 19.5437 2.57862 17.2803C5.19705 16.0558 7.70265 14.9208 10.1651 13.6995C10.6662 13.4506 11.0047 12.8798 11.4163 12.4583C10.8454 12.1762 10.3045 11.7581 9.70381 11.6386C8.04448 11.3067 6.38514 11.1142 4.7258 10.5401L7.15175 9.36199C7.12852 9.20933 7.10197 9.05667 7.07542 8.90401H0L6.58426 5.509L6.40836 5.10744L3.39169 5.70149C6.04663 3.53107 8.75799 1.5631 12.1231 0.823035C14.4097 0.321915 15.9595 1.38389 16.4374 3.59745C16.4606 3.70696 16.4374 3.88617 16.4971 3.91272C18.3556 4.78553 17.0314 6.65727 17.725 7.91504C17.8545 8.14735 17.4695 8.7248 17.2339 9.08322C16.9479 9.46027 16.634 9.81527 16.2947 10.1452L16.5602 10.5136C17.8545 10.0954 19.1853 9.26907 20.4397 9.36863C21.7672 9.47151 24.3193 11.028 24.3193 11.028C25.6467 9.59762 24.2496 8.84759 23.6954 7.90509C23.1411 6.96258 22.5537 5.91389 21.7539 4.53663L24.8569 5.84419L20.2838 0.202439L20.5327 0L26.4299 2.65494L26.6788 2.23679L24.7839 0.647146C24.8569 0.484531 24.9299 0.315278 25.0062 0.1593C27.7375 1.26774 30.5683 2.18369 33.1735 3.53771C35.5729 4.78221 35.8019 6.54775 34.3483 8.80777C33.8704 9.54451 33.7775 10.4173 33.2565 11.2238C32.3007 12.7039 31.2653 12.611 29.9909 12.684C29.8581 12.684 29.732 12.8433 29.1878 13.2017L34.2288 15.7571C35.4634 14.1741 37.5906 13.0689 35.9612 10.7061C37.8528 8.81441 37.8528 8.81441 40 10.5667C38.9281 13.7924 37.8561 17.0845 36.7079 20.3534C36.595 20.6853 36.001 20.9906 35.616 21.0172C34.3467 21.1009 33.0724 21.0665 31.8095 20.9143C30.3327 20.6986 29.7088 21.3125 29.4201 22.6599C29.211 23.6223 28.8227 24.5449 28.461 25.6467H34.8926C33.8372 28.8327 32.8582 31.7929 31.7465 35.1547L34.2521 33.6812C34.8561 35.5364 35.4302 37.3086 36.0607 39.2433H24.0836L26.1578 32.7387H20.0614C19.4408 34.6569 18.8434 36.6415 18.1498 38.5896C17.7748 39.6383 15.4418 39.7876 14.0778 38.8617C12.3621 37.7002 10.6762 36.4922 8.64183 35.0685C9.12968 36.6614 9.49806 37.8561 9.92285 39.2367H3.77998C4.77558 36.1669 5.74463 33.1469 6.76678 29.9809L12.5977 31.8858C13.6464 29.8946 14.5391 27.9466 13.4108 25.6567C12.9528 24.7241 12.747 23.6655 12.4318 22.6699C11.6552 20.2141 11.6552 20.2141 8.94384 20.1875C8.64515 21.1201 8.32988 22.0991 8.01461 23.0648C10.7459 24.4951 10.7459 24.4952 9.67726 26.8946Z" fill="white"/>
</svg>

<svg xmlns="http://www.w3.org/2000/svg" width="40" height="40" fill="none"><path fill="#fff" d="M9.677 26.895c-3.76.434-3.766.438-4.941-3.07-.717-2.137-1.41-4.281-2.157-6.545 2.618-1.224 5.124-2.36 7.586-3.58.501-.25.84-.82 1.251-1.242-.57-.282-1.111-.7-1.712-.82-1.66-.331-3.319-.524-4.978-1.098l2.426-1.178q-.035-.229-.077-.458H0l6.584-3.395-.176-.402-3.016.594c2.655-2.17 5.366-4.138 8.731-4.878 2.287-.501 3.837.56 4.314 2.774.024.11 0 .29.06.316 1.859.873.534 2.744 1.228 4.002.13.232-.256.81-.491 1.168a9.4 9.4 0 0 1-.94 1.062l.266.369c1.295-.419 2.625-1.245 3.88-1.145 1.327.103 3.88 1.659 3.88 1.659 1.327-1.43-.07-2.18-.625-3.123-.554-.942-1.141-1.991-1.941-3.368l3.103 1.307L20.284.202 20.533 0l5.897 2.655.249-.418-1.895-1.59c.073-.162.146-.332.222-.488 2.732 1.109 5.562 2.025 8.167 3.379 2.4 1.244 2.629 3.01 1.175 5.27-.478.737-.57 1.61-1.091 2.416-.956 1.48-1.992 1.387-3.266 1.46-.133 0-.259.16-.803.518l5.04 2.555c1.235-1.583 3.363-2.688 1.733-5.05 1.892-1.893 1.892-1.893 4.039-.14-1.072 3.225-2.144 6.517-3.292 9.786-.113.332-.707.638-1.092.664-1.27.084-2.544.05-3.806-.103-1.477-.215-2.101.398-2.39 1.746-.209.962-.597 1.885-.959 2.987h6.432c-1.056 3.186-2.035 6.146-3.146 9.508l2.505-1.474c.604 1.855 1.178 3.628 1.809 5.562H24.084l2.074-6.504H20.06c-.62 1.918-1.218 3.903-1.911 5.85-.375 1.05-2.708 1.199-4.072.273-1.716-1.162-3.402-2.37-5.436-3.794.488 1.593.856 2.788 1.28 4.169H3.78c.996-3.07 1.965-6.09 2.987-9.256l5.83 1.905c1.05-1.991 1.942-3.94.814-6.23-.458-.932-.664-1.99-.98-2.986-.776-2.456-.776-2.456-3.487-2.483-.299.933-.614 1.912-.93 2.878 2.732 1.43 2.732 1.43 1.663 3.83"/></svg>
